X:315
T:Cayda Cira
Z:Jack Campin, http://www.campin.me.uk/
F:Jack Campin's Nine-Note Tunebook
% last edit 03-02-2013
S:Mehmet Gunduz, "Sarkilar, Turkuler ve Oyun Havalari", v3
M:5/8
L:1/8
Q:5/8=60
K:EPhr
P:Verse
  z2 CG2|G2    G3 |A2 GAF|G2- G3||
P:Chorus
  FG A2G|c/B/c A2G|G2 FGA|FG  E3 |
|:G2 FGA|FG    EFD|D2 CF2|FE  E3 |
  G2 FGA|FG    EFD|D2 CF2|FE  E3:|

